X:1
T: The Morning Star
T:Sally's reel
N:from the playing of Sally Sloane
Z:Ian Hayden 2017
M: 4/4
L: 1/8
K: G
A|:B2-BA BGEF|G2-GA B2 e2|B2BA BGEF|GBAF G2-GA|
B2-BA BGEF|G2-GA B2 e2|B2 BA BGEF|GBAGG4:|
|:B,DEF G2 FG|AFDF E2DB,-|B,DEF G2 FG|AFDF E4|
|B,DEF G2 FG|AFDF E2-ED|B2 BA BGEF|GBAG G4:|

